X:1
T:Title
%%score { 1 | 2 }
L:1/8
M:4/4
K:G
V:1 treble nm="Grand Piano"
V:2 treble 
V:1
 z4 z2 z[Q:1/4=100] D | B>G FG E [B,D]2 [B,D] | [DB]>[B,DG] [A,DF][G,DG] [G,CE]2 z [G,CE] | %3
 [CFA]>[CFA] [CFA][B,FB] [Fc] [FA]2 [FA] | [Fd][Fc][FA][F_B] =B2 z D | B>G FG E [B,D]2 [B,D] | %6
 [DB]>[B,DG] [A,DF][G,DG] [G,CE]2 z [G,CE] | [CFA]>[CFA] [CFA][B,FB] [Fc] [FA]2 F | %8
[M:7/8] DcB A G2 z |[M:1/8] D |[M:4/4] BGFG D2 z G | [DB][B,DG][A,^DF][G,DG] [G,E]4 | %12
 [CFA]>[CFA] [CFA][CFA] [CFA]4 |[M:7/8] [CFA][CF^G][CFA] [D_B] [D=B]3 |[M:1/8] D | %15
[M:4/4] BGFG D2 z G | [DB][B,DG][A,^DF][G,DG] [G,E]4 | [CFA]>[CFA] [CFA][B,FB] [Fc] [FA]2 F | %18
[M:7/8] DDE F [B,G]3 |] %19
V:2
 z4 z2 z [G,B,] | [G,DG]>[K:bass][G,B,D] [D,A,C][E,G,B,] [E,G,C] [G,,G,]2 [G,,G,] | %2
 [G,,G,]>G,, A,,B,, C,2 z C, | D,>D, D,D, [D,A,] [D,C]2 [D,C] | %4
 [D,A,][D,D][D,D][D,D][K:treble] [G,DG]2 z [G,B,] | %5
 [G,DG]>[K:bass][G,B,D] [D,A,C][E,G,B,] [C,G,C] [G,,G,]2 [G,,G,] | [G,,G,]>G,, A,,B,, C,2 z C, | %7
 D,>D, D,D, [D,A,] [D,C]2 [D,A,D] |[M:7/8] [D,F,][D,F,D][D,G,D] [F,CD] [G,B,D]2 z |[M:1/8] [G,B,] | %10
[M:4/4][K:treble] [G,DG][G,B,D][A,CD][G,B,D] [G,B,]2 z[K:bass] [G,B,D] | [G,,G,]G,,B,,B,, C,4 | %12
 D,>D, D,D, D,4 |[M:7/8] D,D,D, [D,F,] [G,,G,]3 |[M:1/8] [G,B,] | %15
[M:4/4][K:treble] [G,DG][G,B,D][A,CD][G,B,D] [G,B,]2 z[K:bass] [G,B,D] | [G,,G,]G,,B,,B,, C,4 | %17
 D,>D, D,D, [D,A,] [D,C]2 [D,A,D] |[M:7/8] [F,A,][F,A,][E,A,^C] [D,A,=C] [G,,G,]3 |] %19

